img/feed.svg

<svg xmlns="http://www.w3.org/2000/svg" width="16" height="16" viewBox="0 0 16 16"><defs><linearGradient id="b" x2="0" y2="100%"><stop offset="0" stop-color="#fff" stop-opacity="0"/><stop offset="1" stop-color="#fff" stop-opacity=".25"/></linearGradient><filter x="-.5" y="-.25" width="2" height="1.5" color-interpolation-filters="sRGB" id="a"><feGaussianBlur stdDeviation="1" result="innerShadowBlurRE"/><feOffset dy="1" result="innerShadowBlurOffsetRE"/><feComposite in2="innerShadowBlurOffsetRE" operator="atop" in="SourceGraphic" result="innerShadowBlurCompositeRE"/><feFlood flood-color="#000" flood-opacity=".25" result="innerShadowBlurFloodRE"/><feBlend in2="innerShadowBlurFloodRE" in="innerShadowBlurCompositeRE" result="innerShadowBlurBlendRE"/><feComposite in2="SourceGraphic" operator="atop" result="sourceGraphicCompositeRE"/><feColorMatrix type="luminanceToAlpha" values="0 0 0 -1 0 0 0 0 -1 0 0 0 0 -1 0 0 0 0 1 0" in="sourceGraphicCompositeRE" result="sourceGraphicAlphaRE"/><feGaussianBlur in="sourceGraphicCompositeRE" stdDeviation="1" result="innerGlowBlurRE"/><feOffset result="innerGlowBlurOffsetRE"/><feComposite in2="innerGlowBlurOffsetRE" operator="atop" in="sourceGraphicCompositeRE" result="innerGlowBlurCompositeRE"/><feFlood flood-color="#000" flood-opacity="1" result="innerGlowFloodRE"/><feBlend in2="innerGlowFloodRE" in="innerGlowBlurCompositeRE" result="innerGlowBlendRE"/><feComposite in2="sourceGraphicCompositeRE" operator="atop" result="sourceGraphicCompositeRE"/><feColorMatrix values="0 0 0 -1 0 0 0 0 -1 0 0 0 0 -1 0 0 0 0 1 0" in="sourceGraphicCompositeRE" result="sourceGraphicAlphaRE"/><feGaussianBlur stdDeviation=".4" in="sourceGraphicAlphaRE" result="bottomEtchBlurRE"/><feColorMatrix values="-1 0 0 0 1 0 -1 0 0 1 0 0 -1 0 1 0 0 0 0.25 0" result="bottomEtchAlphaRE"/><feOffset dy="1" in="bottomEtchAlphaRE" result="bottomEtchOffsetRE"/><feMerge result="sourceGraphicCompositeRE"><feMergeNode in="bottomEtchOffsetRE"/><feMergeNode id="sourceNODE" in="sourceGraphicCompositeRE"/></feMerge><feColorMatrix values="0 0 0 -1 0 0 0 0 -1 0 0 0 0 -1 0 0 0 0 1 0" in="sourceGraphicCompositeRE" result="sourceGraphicAlphaRE"/><feGaussianBlur stdDeviation="1" in="sourceGraphicAlphaRE" result="outerGlowBlurRE"/><feColorMatrix values="-1 0 0 0 1 0 -1 0 0 1 0 0 -1 0 1 0 0 0 0.5 0" result="outerGlowAlphaRE"/><feOffset in="outerGlowAlphaRE" result="outerGlowOffsetRE"/><feMerge><feMergeNode in="outerGlowOffsetRE"/><feMergeNode in="sourceGraphicCompositeRE"/></feMerge></filter></defs><path d="M11.412 5.46C8.098 1.434 1.772 1 1.772 1 1.347 1 1 1.298 1 1.725V3.08c0 .426.348.725.77.725 0 0 4.522.146 7.07 3.18 3.495 3.62 3.23 7.242 3.23 7.242 0 .428.345.773.77.773h1.487c.425 0 .673-.346.673-.773 0 0-.314-5.696-3.588-8.768zm-9.65.513c-.418 0-.762.29-.762.707V8c0 .417.344.707.76.707 0 0 2.384.063 3.814 1.385 1.888 1.746 1.837 4.162 1.837 4.162.002.416.2.746.617.746H9.49c.42 0 .52-.33.52-.746 0 0-.35-3.906-2.47-5.89-2.073-1.938-5.78-2.39-5.78-2.39zM3 11.023c-1.096 0-1.986.885-1.986 1.975s.89 1.973 1.987 1.973C4.1 14.97 4.99 14.09 4.99 13s-.89-1.975-1.987-1.975z" id="feedGlyphBASE" fill="ButtonText" filter="url(#a)"/><path d="M11.412 5.46C8.098 1.434 1.772 1 1.772 1 1.347 1 1 1.298 1 1.725V3.08c0 .426.348.725.77.725 0 0 4.522.146 7.07 3.18 3.495 3.62 3.23 7.242 3.23 7.242 0 .428.345.773.77.773h1.487c.425 0 .673-.346.673-.773 0 0-.314-5.696-3.588-8.768zm-9.65.513c-.418 0-.762.29-.762.707V8c0 .417.344.707.76.707 0 0 2.384.063 3.814 1.385 1.888 1.746 1.837 4.162 1.837 4.162.002.416.2.746.617.746H9.49c.42 0 .52-.33.52-.746 0 0-.35-3.906-2.47-5.89-2.073-1.938-5.78-2.39-5.78-2.39zM3 11.023c-1.096 0-1.986.885-1.986 1.975s.89 1.973 1.987 1.973C4.1 14.97 4.99 14.09 4.99 13s-.89-1.975-1.987-1.975z" fill="url(#b)"/></svg>

<?xml version="1.0" encoding="utf-8"?>
<!DOCTYPE svg PUBLIC "-//W3C//DTD SVG 1.1//EN" "http://www.w3.org/Graphics/SVG/1.1/DTD/svg11.dtd">

<svg version="1.1" 
     id="toolbarButtonFeed"
     xmlns="http://www.w3.org/2000/svg"
     xmlns:xlink="http://www.w3.org/1999/xlink"
     x="0px"
     y="0px"
	   width="16px"
	   height="16px"
	   viewBox="0 0 16 16"
	   xml:space="preserve">

  <defs id="toolbarGlyphDEFS">

    <linearGradient id="glyphGradientOverlay" x1="0" y1="0" x2="0" y2="100%">
      <stop
         id="transparentStop"
         style="stop-color:#ffffff;stop-opacity:0"
         offset="0" />
      <stop
         id="translucentStop"
         style="stop-color:#ffffff;stop-opacity:0.25"
         offset="1" />
    </linearGradient>
  
    <filter x="-0.5" y="-0.25" width="2" height="1.5" color-interpolation-filters="sRGB" id="glyphFilter">
      <feGaussianBlur
        id="innerShadowBlurFLTR"
        stdDeviation="1"
        result="innerShadowBlurRE" />
      
      <feOffset
        id="innerShadowBlurOffsetFLTR"
        dy="1" dx="0"
        result="innerShadowBlurOffsetRE" />
      
      <feComposite
        id="innerShadowBlurCompositeFLTR"
        in2="innerShadowBlurOffsetRE" 
        operator="atop"
        in="SourceGraphic"
        result="innerShadowBlurCompositeRE"  />
      
      <feFlood
        id="innerShadowBlurFloodFLTR"
        flood-color="rgb(0,0,0)"
        flood-opacity="0.25"
        in="innerShadowBlurCompositeRE"
        result="innerShadowBlurFloodRE" />
                                                          
      <feBlend
        id="innerShadowBlurBlendFLTR"
        in2="innerShadowBlurFloodRE"
        mode="normal"
        in="innerShadowBlurCompositeRE"
        result="innerShadowBlurBlendRE" />
      
      <feComposite
        id="sourceGraphicCompositeFLTR"
        in2="SourceGraphic"
        operator="atop"
        result="sourceGraphicCompositeRE" />
      
      <feColorMatrix
        id="sourceGraphicAlphaFLTR"
        type="luminanceToAlpha"
        values="0 0 0 -1 0  
                0 0 0 -1 0 
                0 0 0 -1 0 
                0 0 0  1 0"
        in="sourceGraphicCompositeRE"
        result="sourceGraphicAlphaRE" />

      <feGaussianBlur
        id="innerGlowBlurFLTR"
        in="sourceGraphicCompositeRE"
        stdDeviation="1"
        result="innerGlowBlurRE" />
                                                          
      <feOffset
        id="innerGlowBlurOffsetFLTR"
        dy="0" dx="0"
        result="innerGlowBlurOffsetRE" />

      <feComposite
        id="innerGlowBlurCompositeFLTR"
        in2="innerGlowBlurOffsetRE"
        operator="atop"
        in="sourceGraphicCompositeRE"
        result="innerGlowBlurCompositeRE" />

      <feFlood
        id="innerGlowFloodFLTR"
        flood-color="rgb(0,0,0)"
        flood-opacity="1"
        in="innerGlowBlurCompositeRE"
        result="innerGlowFloodRE" />

      <feBlend
        id="innerGlowBlendFLTR"
        in2="innerGlowFloodRE"
        mode="normal"
        in="innerGlowBlurCompositeRE"
        result="innerGlowBlendRE" />

      <feComposite
        id="innerGlowCompositeFLTR"
        in2="sourceGraphicCompositeRE"
        operator="atop"
        result="sourceGraphicCompositeRE" />

      <feColorMatrix
        id="bottomEtchColorMatrixFLTR"
        values="0 0 0 -1 0 
                0 0 0 -1 0 
                0 0 0 -1 0 
                0 0 0  1 0"
        in="sourceGraphicCompositeRE"
        result="sourceGraphicAlphaRE" />
                                                          
      <feGaussianBlur
        id="bottomEtchBlurFLTR"
        stdDeviation="0.4"
        in="sourceGraphicAlphaRE"
        result="bottomEtchBlurRE" />
                                                          
      <feColorMatrix
        id="bottomEtchAlphaFLTR"
        values="-1  0  0 0    1
                 0 -1  0 0    1 
                 0  0 -1 0    1 
                 0  0  0 0.25 0"
        type="matrix"
        result="bottomEtchAlphaRE" />
        
      <feOffset
        id="bottomEtchOffsetFLTR"
        dy="1" dx="0"
        in="bottomEtchAlphaRE"
        result="bottomEtchOffsetRE" />
         
      <feMerge id="sourceEtchMergeFLTR" result="sourceGraphicCompositeRE">
        <feMergeNode id="etchNODE" in="bottomEtchOffsetRE" />
        <feMergeNode id="sourceNODE" in="sourceGraphicCompositeRE"/>
      </feMerge>
      
      <feColorMatrix
        id="outerGlowColorMatrixFLTR"
        values="0 0 0 -1 0 
                0 0 0 -1 0
                0 0 0 -1 0
                0 0 0  1 0"
        in="sourceGraphicCompositeRE"
        result="sourceGraphicAlphaRE" />

      <feGaussianBlur
        id="outerGlowBlurFLTR"
        stdDeviation="1"
        in="sourceGraphicAlphaRE"
        result="outerGlowBlurRE"/>
                                                          
      <feColorMatrix
        id="outerGlowAlphaFLTR"
        values="-1  0 0 0  1
                 0 -1 0 0  1
                 0 0 -1 0  1
                 0 0 0 0.5 0"
        type="matrix"
        result="outerGlowAlphaRE" />

      <feOffset
        id="outerGlowOffsetFLTR"
        dy="0" dx="0"
        in="outerGlowAlphaRE"
        result="outerGlowOffsetRE" />
                                                          
      <feMerge id="sourceOuterGlowOffsetMergeFLTR">
        <feMergeNode id="outerGlowNODE" in="outerGlowOffsetRE" />
        <feMergeNode id="sourceNODE" in="sourceGraphicCompositeRE" />
      </feMerge>
    </filter>
    
  </defs>

  <path d="M11.412,5.459C8.098,1.435,1.771,1,1.771,1 C1.348,1,1,1.298,1,1.725v1.354c0,0.427,0.348,0.726,0.771,0.726c0,0,4.521,0.146,7.069,3.179c3.495,3.622,3.229,7.243,3.229,7.243 c0,0.428,0.346,0.773,0.77,0.773h1.488C14.752,15,15,14.654,15,14.227C15,14.227,14.686,8.531,11.412,5.459z M1.761,5.973 C1.344,5.973,1,6.264,1,6.68V8c0,0.417,0.344,0.707,0.761,0.707c0,0,2.383,0.063,3.813,1.385c1.888,1.746,1.837,4.162,1.837,4.162 C7.412,14.67,7.61,15,8.027,15h1.464c0.418,0,0.52-0.33,0.52-0.746c0,0-0.351-3.906-2.472-5.889 C5.467,6.426,1.761,5.973,1.761,5.973z M3.003,11.023c-1.097,0-1.987,0.885-1.987,1.975s0.89,1.973,1.987,1.973 c1.098,0,1.987-0.883,1.987-1.973S4.101,11.023,3.003,11.023z"
      id="feedGlyphBASE"
      style="fill:ButtonText; fill-opacity:1; filter:url(#glyphFilter);" />
  <path d="M11.412,5.459C8.098,1.435,1.771,1,1.771,1 C1.348,1,1,1.298,1,1.725v1.354c0,0.427,0.348,0.726,0.771,0.726c0,0,4.521,0.146,7.069,3.179c3.495,3.622,3.229,7.243,3.229,7.243 c0,0.428,0.346,0.773,0.77,0.773h1.488C14.752,15,15,14.654,15,14.227C15,14.227,14.686,8.531,11.412,5.459z M1.761,5.973 C1.344,5.973,1,6.264,1,6.68V8c0,0.417,0.344,0.707,0.761,0.707c0,0,2.383,0.063,3.813,1.385c1.888,1.746,1.837,4.162,1.837,4.162 C7.412,14.67,7.61,15,8.027,15h1.464c0.418,0,0.52-0.33,0.52-0.746c0,0-0.351-3.906-2.472-5.889 C5.467,6.426,1.761,5.973,1.761,5.973z M3.003,11.023c-1.097,0-1.987,0.885-1.987,1.975s0.89,1.973,1.987,1.973 c1.098,0,1.987-0.883,1.987-1.973S4.101,11.023,3.003,11.023z"
      id="feedGlyphBASE"
      style="fill:url(#glyphGradientOverlay); fill-opacity:1;" />
	
</svg>
